!!!OTL: Schloss in Oesterreich.
!!!OTL-incipit: Ich waiss ein schoens Lustgaertelein,
!!!ODT: 1646
!!!ARE: Europa, Mitteleuropa, Deutschland
!!!YOR: 1, S. 272
!!    1646 Handschrift Kloster Seeon
!!!SCT: Q1024F
!!!YEM: Copyright 1995, estate of Helmut Schaffrath.
**kern	**text
*ICvox	*
!! Irregular meter.
*MX	*
*k[]	*
!LO:TX:a:t=(Werlin) 1646	!
!LO:TX:a:t=Forſter 2 Nr. 73 (1549)Melodieüberſicht l: Altere Weiſe (II)	!
2r	.
4r	.
{4d	Jch
=1	=1
4d	waiß
4d	ein
4a	ſchöns
4a	Luſtgär-
=2	=2
4.cc	.
8a	-te-
2f	-lein,
4r}	.
{4f	darein
=3	=3
4a	.
4b	thue
4cc	ich
4dd	ſpa-
=4	=4
2b	-ʒie-
2a	-ren,
4r}	.
{4d	wol-
=5	=5
4d	-riechend
4e	.
4f	da
4g	die_Blüſemblein
=6	=6
4.a	.
8a	.
2d	ſeind,
4r}	.
{4a	Hi-
=7	=7
4cc	-mel
4a	vnd
4.g	Er-
8f	-den
=8	=8
2e	ʒie-
1d}	-ren.
==	==
!!!AGN: Ballade, ??
!! Anderes Lied, Melodievergleich zu Q0024 E und ff.
!!!ONB: ESAC (Essen Associative Code) Database: BALLADE
!!!AMT: irregular
!!!AIN: vox
!!!EED: Helmut Schaffrath
!!!EEV: 1.0
!!!source: Deutsche Volkslieder mit ihren Melodien. Balladen. Herausgegeben vom Deutschen Volksliedarchiv. Erster Band Balladen. Berlin und Leipzig 1935.
!!!page: 273
!!!ENC: Anna Maria Matuszewska
!!!EEV: 2025/02/14
*-	*-
